X:417
T:Wullafjord
R:Reel
O:Shetland Islands
S:Richard Robinson
Z:Transcription:Richard Robinson(?), Chords:Mike Long
M:C|
L:1/8
K:D
dB|\
"D"A2F A2D FA|"G"B2G B2D GB|"D"A2F A2D FA|"A"EFGA GFED|\
"D"A2F A2D FA|"G"B2G B2D GB|
"A"ABcd efge|"D"f2d2 d2:|\
|:de|\
"D"f2d f2f df|"G"geaf gfed|"D"f2d f2A df|
"A"e2ce Aece|\
"D"f2d f2f df|"G"geaf gfed|"A"ABcd efge|"D"f2d2 d2:|
